X: 30543
T: PRIZE
C:
%R: jig
B: Elias Howe "The Musician's Companion" Part 3 1844 p.54 #3
S: http://imslp.org/wiki/The_Musician's_Companion_(Howe,_Elias)
S: https://archive.org/stream/firstthirdpartof03howe/#page/66/mode/1up
Z: 2015 John Chambers <jc:trillian.mit.edu>
M: 6/8
L: 1/8
K: C
% - - - - - - - - - - - - - - - - - - - - - - - - -
G |\
cEF GAB | cde f2d | e2c B2c | dec BAG |\
cEF GAB | cde f2d | ege ^faf | g3 g2 :|
|: d |\
ga.f e2c | B2d c2e |d2f edc | Bdc BAG |\
gaf e2c | Bcd cde | def efd | c3 [c2C2] :|
% - - - - - - - - - - - - - - - - - - - - - - - - -
